app/dist/common/images/baltic-classifieds-plc.svg

<svg fill="none" height="18" viewBox="0 0 18 18" width="18" xmlns="http://www.w3.org/2000/svg" xmlns:xlink="http://www.w3.org/1999/xlink"><linearGradient id="a"><stop offset="0" stop-color="#1b75bc"/><stop offset="1" stop-color="#06517f"/></linearGradient><linearGradient id="b" gradientUnits="userSpaceOnUse" x1="8.35189" x2="18.8907" xlink:href="#a" y1="5.14702" y2="12.0778"/><linearGradient id="c" gradientUnits="userSpaceOnUse" x1="4.85189" x2="15.3907" xlink:href="#a" y1="5.14702" y2="12.0778"/><linearGradient id="d" gradientUnits="userSpaceOnUse" x1="2.78302" x2="13.252" xlink:href="#a" y1="6.98134" y2="13.7625"/><path d="m0 0h18v18h-18z" fill="#f0f3fa"/><path d="m15 11.3836c0 1.1617-.6945 1.6164-1.4903 1.6164-.8166 0-1.5097-.4749-1.5097-1.6164v-4.76758c.0026-1.14152.6843-1.61602 1.5378-1.61602.7593 0 1.4622.38349 1.4622 1.54524 0 .66565-.3172 1.12143-1 1.12143v-.91919c0-.5659-.2341-.74748-.4998-.74748-.2658 0-.5002.18081-.5002.74748v4.50502c0 .5655.2348.7475.5009.7475s.4991-.182.4991-.7475v-1.2226c.0001-.27305.1021-.53489.2835-.728s.4599-.30169.7165-.3019z" fill="url(#b)"/><path d="m11 11.3836c0 1.1617-.6945 1.6164-1.49031 1.6164-.81662 0-1.50969-.4749-1.50969-1.6164v-4.76758c.00256-1.14152.68429-1.61602 1.53783-1.61602.75927 0 1.46217.38349 1.46217 1.54524 0 .66565-.3172 1.12143-1 1.12143v-.91919c0-.5659-.23407-.74748-.49982-.74748s-.50018.18081-.50018.74748v4.50502c0 .5655.2348.7475.50091.7475.26612 0 .49909-.182.49909-.7475v-1.2226c.0001-.27305.1021-.53489.2835-.728s.4599-.30169.7165-.3019z" fill="url(#c)"/><path d="m6.22454 8.90049c.50378-.21225.77546-.64646.77546-1.17124v-1.11409c-.00144-1.1207-.6729-1.61516-1.39259-1.61516h-1.60741v6.3845c0 1.1207.5797 1.6155 1.29939 1.6155h.40158c.71969 0 1.29903-.4948 1.29903-1.6155v-1.244c0-.5749-.19611-1.00794-.77546-1.24001zm-1.22454-2.90049h.43001c.35516 0 .56999.18095.56999.74655v.91195c0 .56521-.21483.67483-.56999.67483h-.43001zm1 5.2212c0 .5656-.1029.7788-.45806.7788h-.04822c-.35517 0-.49372-.2531-.49372-.8187v-1.84797h.47787c.35516 0 .52213.2416.52213.80717z" fill="url(#d)"/></svg>

<!-- by TradingView --><svg width="18" height="18" viewBox="0 0 18 18" fill="none" xmlns="http://www.w3.org/2000/svg">
<rect width="18" height="18" fill="#F0F3FA"/>
<path d="M15 11.3836C15 12.5453 14.3055 13 13.5097 13C12.6931 13 12 12.5251 12 11.3836V6.61602C12.0026 5.4745 12.6843 5 13.5378 5C14.2971 5 15 5.38349 15 6.54524C15 7.21089 14.6828 7.66667 14 7.66667V6.74748C14 6.18158 13.7659 6 13.5002 6C13.2344 6 13 6.18081 13 6.74748V11.2525C13 11.818 13.2348 12 13.5009 12C13.767 12 14 11.818 14 11.2525V10.0299C14.0001 9.75685 14.1021 9.49501 14.2835 9.3019C14.4649 9.10879 14.7434 9.00021 15 9V11.3836Z" fill="url(#paint0_linear_5825_209732)"/>
<path d="M11 11.3836C11 12.5453 10.3055 13 9.50969 13C8.69307 13 8 12.5251 8 11.3836V6.61602C8.00256 5.4745 8.68429 5 9.53783 5C10.2971 5 11 5.38349 11 6.54524C11 7.21089 10.6828 7.66667 10 7.66667V6.74748C10 6.18158 9.76593 6 9.50018 6C9.23443 6 9 6.18081 9 6.74748V11.2525C9 11.818 9.2348 12 9.50091 12C9.76703 12 10 11.818 10 11.2525V10.0299C10.0001 9.75685 10.1021 9.49501 10.2835 9.3019C10.4649 9.10879 10.7434 9.00021 11 9V11.3836Z" fill="url(#paint1_linear_5825_209732)"/>
<path d="M6.22454 8.90049C6.72832 8.68824 7 8.25403 7 7.72925V6.61516C6.99856 5.49446 6.3271 5 5.60741 5H4V11.3845C4 12.5052 4.5797 13 5.29939 13H5.70097C6.42066 13 7 12.5052 7 11.3845V10.1405C7 9.5656 6.80389 9.13256 6.22454 8.90049ZM5 6H5.43001C5.78517 6 6 6.18095 6 6.74655V7.6585C6 8.22371 5.78517 8.33333 5.43001 8.33333H5V6ZM6 11.2212C6 11.7868 5.8971 12 5.54194 12H5.49372C5.13855 12 5 11.7469 5 11.1813V9.33333H5.47787C5.83303 9.33333 6 9.57493 6 10.1405V11.2212Z" fill="url(#paint2_linear_5825_209732)"/>
<defs>
<linearGradient id="paint0_linear_5825_209732" x1="8.35189" y1="5.14702" x2="18.8907" y2="12.0778" gradientUnits="userSpaceOnUse">
<stop stop-color="#1B75BC"/>
<stop offset="1" stop-color="#06517F"/>
</linearGradient>
<linearGradient id="paint1_linear_5825_209732" x1="4.85189" y1="5.14702" x2="15.3907" y2="12.0778" gradientUnits="userSpaceOnUse">
<stop stop-color="#1B75BC"/>
<stop offset="1" stop-color="#06517F"/>
</linearGradient>
<linearGradient id="paint2_linear_5825_209732" x1="2.78302" y1="6.98134" x2="13.252" y2="13.7625" gradientUnits="userSpaceOnUse">
<stop stop-color="#1B75BC"/>
<stop offset="1" stop-color="#06517F"/>
</linearGradient>
</defs>
</svg>
